public/images/well/shape/4.svg

<svg width="100%" height="100%" preserveAspectRatio="none" viewBox="0 0 132 132" fill="none" xmlns="http://www.w3.org/2000/svg">
<path d="M92.2583 121.936C105.484 111.739 115.25 99.6489 122.11 84.9785C128.483 71.3588 132.323 55.1974 133.528 36.9348C133.544 35.9382 133.575 35.0266 133.606 34.2C133.629 33.4661 133.667 32.4695 133.652 32.0369C130.755 10.63 123.477 5.01374 116.03 2.13219C112.468 0.757083 109.1 0.054077 106.033 0.054077C103.777 0.054077 96.9013 0.0540755 88.3723 8.93047C80.639 16.9725 72.3804 18.6644 66.8103 18.6644C58.8838 18.6644 51.5754 15.4275 45.0937 9.03862C38.921 2.95107 32.9878 0 26.9695 0C23.9952 0 20.7737 0.718452 17.3744 2.13991C11.812 4.46523 7.74836 7.73305 4.96716 12.1133C2.10097 16.6249 0.478573 22.4652 0.154099 29.4644C-0.726615 48.5845 2.1705 65.9588 8.77585 81.0927C15.4507 96.3966 26.2047 110.024 40.721 121.589C50.8956 129.7 59.3242 133.64 66.4935 133.64C73.6628 133.64 82.0219 129.809 92.2505 121.921L92.2583 121.936Z" fill="#0E0E0E"/>
</svg>

<svg preserveAspectRatio="none" viewBox="0 0 132 132" fill="none" xmlns="http://www.w3.org/2000/svg"><path d="M92.258 121.936c13.226-10.197 22.992-22.287 29.852-36.958 6.373-13.62 10.213-29.78 11.418-48.043.016-.997.047-1.908.078-2.735.023-.734.061-1.73.046-2.163-2.897-21.407-10.175-27.023-17.622-29.905C112.468.757 109.1.054 106.033.054c-2.256 0-9.132 0-17.66 8.876-7.734 8.043-15.993 9.734-21.563 9.734-7.926 0-15.235-3.237-21.716-9.625C38.92 2.95 32.988 0 26.969 0c-2.974 0-6.195.718-9.595 2.14-5.562 2.325-9.626 5.593-12.407 9.973C2.101 16.625.48 22.465.154 29.464c-.88 19.12 2.017 36.495 8.622 51.629 6.675 15.304 17.429 28.931 31.945 40.496 10.175 8.111 18.603 12.051 25.773 12.051 7.169 0 15.528-3.831 25.757-11.719l.007.015Z" fill="#0E0E0E"/></svg>
